!!!OTL: 43. Kriegslied. / [Gedicht von Martin Opitz. 1624.]
!!!COM: Zumsteg
!!!ODT: 1792
!!!ARE: Europa, Mitteleuropa, Deutschland
!!!SCT: B0043
!!!TXL: @@DE
!!!YEM: Copyright 1995, estate of Helmut Schaffrath.
**kern	**text
*ICvox	*
*Ivox	*
*M4/4	*
*met(c)	*
*clefG2	*
*k[b-e-a-]	*
*E-:	*
!LO:TX:a:t=Mit Kraft.	!
{8b-	Auf,
=1	=1
4.ee-	auf!
8e-	wer
8.e-	deut-
16f	-ſche
8.g	Frei-
16a-	-heit
=2	=2
8.b-L	lie-
16anJ	.
4b-	-bet,
8r}	.
{8b-/	wer
8g	Luſt
8e-	für
=3	=3
4.cc	Gott
8cc	ʒu
4.b-/	fech-
8a-	-ten
=4	=4
2g	hat
4r	.
8r}	.
{8b-	der
=5	=5
4.ee-	Schein,
8cc	den
8.an	Man-
16f	-cher
8.g	von
16a	ſich
=6	=6
8.b-L	gie-
16anJ	.
4b-	-bet,
8r}	.
{8b-	verbrin-
8b-	.
8dd	-get
=7	=7
4.cc	kei-
8cc	-ne
4ff	Rit-
4an	-ter-
=8	=8
2b-	-that.
8r}	.
{8b-	Wenn
8b-	Fug
8b-	und
=9	=9
4.cc	Ur-
8cc	-ſach
4.b-	iſt
8b-	ʒu
=10	=10
4a-	brechen,
4a-	.
8r}	.
{8f	wenn
8f	Feind
8a-	nicht
=11	=11
4.g	Freund
8b-	mehr
(<4b-	blei-
16ccqqL	.
16b-qqJ	.
8a-)	.
8g	-ben
=12	=12
2f	kann
8r}	.
{8b-	da
8cc	muß
8dd	man
=13	=13
4.ee-	nur
8ee-	vom
4.ff	Se-
8a-	-hen
=14	=14
4a-	ſpre-
4g	-chen,
8r}	.
{8ee-	da
8ee-	ʒeigt
8ee-	ſein
=15	=15
4.f	Herʒ
8cc	der
4b-	deut-
4a-	-ſche
=16	=16
2g	Mann,
8r}	.
{8ee-	da
8.dd	ʒeigt
16ee-	ſein
=17	=17
4cc	Herʒ
4a-	der
4f	deut-
4b-	-ſche
=18	=18
2e-	Mann.
4r	.
8r}	.
==	==
!!!AGN: Kriegs -, Sieges -, Soldaten - Lied
!!!GTL: Kriegs- und Siegeslieder
!!!ONB: ESAC (Essen Associative Code) Database: BOEHME
!!!AMT: simple quadruple
!!!AIN: vox
!!!EED: Helmut Schaffrath
!!!EEV: 1.0
!!!RDF**kern: < = below
!!Text: Martin Opitz
!!!URL-scan: https://archive.org/details/BoehmeVtLieder1895/page/n59/mode/2up
!!!ENC: Anna Maria Matuszewska
!!!EEV: 2024/14/06
*-	*-
